img/icons/phone.svg

<svg width="20" height="20" viewBox="0 0 20 20" fill="none" xmlns="http://www.w3.org/2000/svg">
<path d="M18.6775 13.6617C17.345 13.6617 16.0558 13.445 14.8533 13.055C14.4742 12.925 14.0517 13.0225 13.7592 13.315L12.0583 15.4492C8.9925 13.9867 6.12167 11.2242 4.59417 8.05L6.70667 6.25167C6.99917 5.94833 7.08583 5.52583 6.96667 5.14667C6.56583 3.94417 6.36 2.655 6.36 1.3225C6.36 0.7375 5.8725 0.25 5.2875 0.25H1.53917C0.954167 0.25 0.25 0.51 0.25 1.3225C0.25 11.3867 8.62417 19.75 18.6775 19.75C19.4467 19.75 19.75 19.0675 19.75 18.4717V14.7342C19.75 14.1492 19.2625 13.6617 18.6775 13.6617Z" fill="#4A4A4A"/>
</svg>

<svg xmlns="http://www.w3.org/2000/svg" width="20" height="20" fill="none"><path fill="#4A4A4A" d="M18.677 13.662c-1.332 0-2.621-.217-3.824-.607a1.059 1.059 0 0 0-1.094.26l-1.7 2.134c-3.066-1.462-5.937-4.225-7.465-7.399l2.113-1.798c.292-.304.379-.726.26-1.105a12.082 12.082 0 0 1-.607-3.825C6.36.737 5.872.25 5.287.25H1.54C.954.25.25.51.25 1.323c0 10.064 8.374 18.427 18.427 18.427.77 0 1.073-.683 1.073-1.278v-3.738c0-.585-.488-1.072-1.073-1.072Z"/></svg>
